X: 20475
T: John Kelly's
R: reel
M: 4/4
K: Edorian
Beed BcdA|~B2AF EFGA|Beed BcdA|(3BcdAF D2FA:|
Beec d2 [.d2.f2]|[de]dBc dB(3ABA|Beec d2 [.d2.f2]|[de]dBc ~d3A|
Beec d2[.d2.f2]|[de]dBc dBAf|~g3e ~f3e|dBAB [B3e3]d|

